flags/language/ar.svg

<svg width="512" height="512" viewBox="0 0 512 512" fill="none" xmlns="http://www.w3.org/2000/svg">
<rect width="512" height="512" fill="var(--flag-palette-dark-green, #496e2d)"/>
<path d="M379 176V273H363C360.2 273 357.7 272.8 355.2 272.6C358.2 268.3 360.4 263.7 361.6 258.9C362.928 254.014 363.259 248.91 362.572 243.893C361.884 238.876 360.194 234.049 357.6 229.7C354.759 225.211 350.833 221.512 346.183 218.942C341.534 216.373 336.312 215.017 331 215C325.705 215.034 320.503 216.398 315.873 218.966C311.243 221.535 307.332 225.226 304.5 229.7C299.2 238.3 297.8 248.7 300.4 258.9C301.6 263.7 303.8 268.3 306.8 272.6C304.3 272.8 301.8 273 299 273H283V215H259V297C259 300.978 257.42 304.794 254.607 307.607C251.794 310.42 247.978 312 244 312V336C254.343 336 264.263 331.891 271.577 324.577C278.891 317.263 283 307.343 283 297H299C311.4 297 322 294.7 331 291C340 294.7 350.6 297 363 297H403V176H379ZM418 176V297H442V176H418ZM88 176V200H112V176H88ZM127 176V200H151V176H127ZM151 215C129.252 215 108.395 223.639 93.0172 239.017C77.6393 254.395 69 275.252 69 297H93C93.0003 285.864 96.2065 274.963 102.236 265.6C108.265 256.237 116.862 248.808 127 244.2V297H229V215H205V273H190V215H166V273H151V215ZM331 239C334.4 239 335.7 240 337.1 242.4C337.996 244.016 338.564 245.794 338.77 247.63C338.976 249.466 338.816 251.326 338.3 253.1C337.4 256.7 335.3 260.8 331 264.3C327.449 261.428 324.894 257.509 323.7 253.1C323.184 251.326 323.024 249.466 323.23 247.63C323.436 245.794 324.004 244.016 324.9 242.4C326.3 240 327.6 239 331 239ZM127 312V336H151V312H127ZM166 312V336H190V312H166ZM205 312V336H229V312H205Z" fill="var(--flag-palette-white, #eeeeee)"/>
</svg>

<svg xmlns="http://www.w3.org/2000/svg" width="512" height="512" fill="none"><path fill="var(--flag-palette-dark-green, #496e2d)" d="M0 0h512v512H0z"/><path fill="var(--flag-palette-white, #eeeeee)" d="M379 176v97h-16q-4.1 0-7.8-.4a42 42 0 0 0 7.4-28.7q-1-7.6-5-14.2a31.6 31.6 0 0 0-41.7-10.7 32 32 0 0 0-11.4 10.7c-5.3 8.6-6.7 19-4.1 29.2q1.9 7.2 6.4 13.7-3.7.4-7.8.4h-16v-58h-24v82a15 15 0 0 1-15 15v24a39 39 0 0 0 39-39h16c12.4 0 23-2.3 32-6 9 3.7 19.6 6 32 6h40V176zm39 0v121h24V176zm-330 0v24h24v-24zm39 0v24h24v-24zm24 39a82 82 0 0 0-82 82h24a58 58 0 0 1 34-52.8V297h102v-82h-24v58h-15v-58h-24v58h-15zm180 24c3.4 0 4.7 1 6.1 3.4a14 14 0 0 1 1.2 10.7c-.9 3.6-3 7.7-7.3 11.2a22 22 0 0 1-7.3-11.2 14 14 0 0 1 1.2-10.7c1.4-2.4 2.7-3.4 6.1-3.4m-204 73v24h24v-24zm39 0v24h24v-24zm39 0v24h24v-24z"/></svg>
